X: 520
%
U:~=!turn!
T: The Nine Pint Coggie
C:Very old
O:Scotland
B:Keith Norman MacDonald : "The Skye collection of the best reels & strathspeys extant" : 1887
Z:Ralph Palmer
R:Reel
M:C
L:1/8
K:E aeolian
F | E/E/E EF E2 DB | (AF)ED FAAd | BdAB defe | dD D/D/D FEE :|
F | Eeef e2 de | f2 ed Bdde | Beef edef | afed e/e/e ef |
abaf defe | dBAF ABde | faef deBe | dD D/D/D FEE |]


